X: 13492
T: Flowers Of Alston, The
R: mazurka
M: 3/4
K: Dmajor
|:(3BAG|F>A d2- d>B|c<e g2 e>f|g>e f>d (3edc|d<f A2- A>G|
F>A d2 e>d|c<e G2 B>G|F<d G<e d>c|d2 D2:|
|:A>G|F>A d2- d>F|B<G D2- D>A|^G<B e2 (3Bcd|c<A E2- E>G|
F>A d>A (3fed|c<e G2 B>G|F<d G<e d>c|d2 D2:|

